X:46
T:Fair Day in Carrick* (j)
B:NFID.151b ("untitled jig")
045fair_day
S:CC
L:1/8
M:6/8
R:jig
Q:320
K:Am % dor
cBA BAG|EAA A2B|cBc Adc|BGG G3|
g^fg age|dcB g2^f|edc Bcd|1 e^cA ^fed:|2 e^cA A2||
^g/a/|: ae^c ae^c|A^GB A2^f|gdB gdB|G^FA GAB|
=cBc d^cd|e^de a2g|edc Bcd|1 e^cA A2^g:|2 e^cA ^fed||

%%%

